packages/ndla-icons/svg/contentType/assessment-resource.svg

<?xml version="1.0" encoding="UTF-8"?>
<svg width="24px" height="24px" viewBox="0 0 24 24" version="1.1" xmlns="http://www.w3.org/2000/svg" xmlns:xlink="http://www.w3.org/1999/xlink" data-license="Apache License 2.0" data-source="Keyteq">
    <g id="Page-1" stroke="none" stroke-width="1" fill="none" fill-rule="evenodd">
        <g id="vurderingsressurs">
            <g>
                <polygon id="Shape" points="0 0 24 0 24 24 0 24"></polygon>
                <path d="M0,10 L0,8 L11,8 L11,10 L0,10 Z M24,0 L24,2 L0,2 L0,0 L24,0 Z M24,4 L24,6 L0,6 L0,4 L24,4 Z M18.1021998,18.0740741 C17.3559684,18.0740741 16.6682752,17.887519 16.0390997,17.5144033 C15.4099241,17.1412876 14.912444,16.6401495 14.5466443,16.0109739 C14.1808445,15.3817984 13.9979474,14.6941052 13.9979474,13.9478738 C13.9979474,13.2016424 14.1808445,12.5139492 14.5466443,11.8847737 C14.912444,11.2555981 15.4099241,10.758118 16.0390997,10.3923182 C16.6682752,10.0265185 17.3559684,9.8436214 18.1021998,9.8436214 C18.8484313,9.8436214 19.5361244,10.0265185 20.1652999,10.3923182 C20.7944755,10.758118 21.2956136,11.2555981 21.6687293,11.8847737 C22.041845,12.5139492 22.2284001,13.2016424 22.2284001,13.9478738 C22.2284001,14.6941052 22.041845,15.3817984 21.6687293,16.0109739 C21.2956136,16.6401495 20.7944755,17.1412876 20.1652999,17.5144033 C19.5361244,17.887519 18.8484313,18.0740741 18.1021998,18.0740741 Z M12.5432099,18.0740741 L13.2894376,18.0740741 L13.5308642,17.8106996 C13.0772725,17.29858 12.729768,16.7096512 12.4883402,16.0438957 C12.2469124,15.3781402 12.1262003,14.6794733 12.1262003,13.9478738 C12.1262003,12.8651066 12.3859142,11.8701463 12.9053498,10.962963 C13.4247854,10.0557796 14.1307683,9.33882294 15.0233196,8.81207133 C15.9451349,8.27068774 16.9474111,8 18.0301783,8 C19.1129455,8 20.1115638,8.26337185 21.0260631,8.79012346 C21.9405624,9.31687506 22.664835,10.0374897 23.1989026,10.951989 C23.7329702,11.8664883 24,12.8651066 24,13.9478738 C24,15.030641 23.7293123,16.0329172 23.1879287,16.9547325 C22.6611771,17.8472838 21.9405624,18.5569247 21.0260631,19.0836763 C20.1115638,19.6104279 19.1129455,19.8737997 18.0301783,19.8737997 C17.3132109,19.8737997 16.6218598,19.7530876 15.9561043,19.5116598 C15.2903488,19.270232 14.70142,18.9227275 14.1893004,18.4691358 L13.9259259,18.7105624 L13.9259259,19.4348422 L9.38271605,24 L8,22.617284 L12.5432099,18.0740741 Z" id="shape" fill="currentColor"></path>
            </g>
        </g>
    </g>
</svg>

<svg xmlns="http://www.w3.org/2000/svg" data-license="Apache License 2.0" data-source="Keyteq" viewBox="0 0 24 24">
  <g fill="none" fill-rule="evenodd">
    <path d="M0 0h24v24H0z"/>
    <path fill="currentColor" d="M0 10V8h11v2H0ZM24 0v2H0V0h24Zm0 4v2H0V4h24Zm-5.9 14a4.1 4.1 0 0 1-2-7.7 4 4 0 0 1 2-.5 4.1 4.1 0 0 1 4.1 4.1 4 4 0 0 1-.5 2.1c-.4.6-1 1.1-1.5 1.5a4 4 0 0 1-2.1.6Zm-5.6 0h.8l.2-.2c-.4-.5-.8-1-1-1.8A6.1 6.1 0 0 1 15 8.8c1-.5 2-.8 3-.8a5.9 5.9 0 0 1 6 6 5.8 5.8 0 0 1-3 5c-.9.6-1.9.9-3 .9a6 6 0 0 1-3.8-1.4l-.3.2v.7L9.4 24 8 22.6l4.5-4.5Z"/>
  </g>
</svg>
